X: 3
T: Ah Surely
Z: Daniel Parker
S: https://thesession.org/tunes/577#setting30503
R: reel
M: 4/4
L: 1/8
K: Gmaj
|: A4 BA (3AAA|BA Be ef gA|FA ~A2 BA Bd|e2 dc BG GG|{G}A4 BA (3AAA|BA Bd g3 a|bg ag eg fa|ge dc BG [1 GG|:|[2 G2|
|:bg (3ggg ag ef|(3ggg {a}ge de ga|bg (3ggg bg dg|ea ~a2 ea a2|bg (3ggg ag ef (3ggg {a}ge de ga|bg ag eg fa|ge dc BG [1 G2:|[2 GG|
